X: 668
T: I Don't Love Nobody
C:Traditional
B: jims roots
M:4/4
L:1/8
Q: 1/4=100
K:C
V:1 
e2f2^f |: "C"g^f ga2 g ^de | c6 G^G | "F"Ac2A dcAc | "C"G2 e2 f2 ^f2 |
g^f ga2g ^de | c6 ^c2 | "D"d^cde ^fdef | "G"[B2g2] e2 f2 ^f2 ||
"C"g^f ga2g ^de | c6 G^G | "F"Ac2A dcAc | "C"[G2c2] [Gc][Gc] [G2c2] G^G |
"F"Ac2A "F#"dcAc | "C"e^de"A7"(g g)a g2 |"D7"e^de"G7"(g g)ed2 | "C"c2 cc c4 ||
"Am"EEE2 eee2| EEE2 eee2 | "E7"eee2 d2c2 | B2"Am"A6 |
"Am"EEE2 eee2| EEE2 eee2 | "E7"eee2 d2c2 | B2"Am"A2 z2 "G"[G,2D2B2g2]:|
% abcbook-tune_id 6298c25d607f8a7c062bb612


% abcbook-boost 0
% abcbook-tablature 
% abcbook-transpose 
% abcbook-lastupdated 1654178398987
% abcbook-soundfonts 
% abcbook-repeats 1


